#src/img/svg/sec4-icon-3.svg

<svg width="100" height="100" viewBox="0 0 100 100" fill="none" xmlns="http://www.w3.org/2000/svg">
<path d="M9.375 9.375H12.5V12.5H9.375V9.375Z" fill="url(#paint0_linear_10112_21)"/>
<path d="M9.375 15.625H12.5V18.75H9.375V15.625Z" fill="url(#paint1_linear_10112_21)"/>
<path d="M87.5 81.25H90.625V84.375H87.5V81.25Z" fill="url(#paint2_linear_10112_21)"/>
<path d="M87.5 87.5H90.625V90.625H87.5V87.5Z" fill="url(#paint3_linear_10112_21)"/>
<path d="M84.375 71.875H60.9375C58.3488 71.875 56.25 73.9738 56.25 76.5625V81.25H46.875V84.375H19.5312C10.4706 84.375 3.125 77.0294 3.125 67.9688C3.125 58.9081 10.4706 51.5625 19.5312 51.5625H80.4688C91.2552 51.5625 100 42.8177 100 32.0312C100 21.2448 91.2552 12.5 80.4688 12.5H53.125V9.375H43.75V4.6875C43.75 2.09885 41.6512 0 39.0625 0H15.625V3.125H0V25H15.625V28.125H39.0625C41.6512 28.125 43.75 26.0262 43.75 23.4375V18.75H53.125V15.625H80.4688C89.5294 15.625 96.875 22.9706 96.875 32.0312C96.875 41.0919 89.5294 48.4375 80.4688 48.4375H19.5312C8.74481 48.4375 0 57.1823 0 67.9688C0 78.7552 8.74481 87.5 19.5312 87.5H46.875V90.625H56.25V95.3125C56.25 97.9012 58.3488 100 60.9375 100H84.375V96.875H100V75H84.375V71.875ZM15.625 21.875H3.125V6.25H15.625V21.875ZM40.625 9.375V23.4375C40.625 24.3004 39.9254 25 39.0625 25H18.75V3.125H39.0625C39.9254 3.125 40.625 3.82462 40.625 4.6875V9.375ZM50 15.625H43.75V12.5H50V15.625ZM56.25 87.5H50V84.375H56.25V87.5ZM81.25 96.875H60.9375C60.0746 96.875 59.375 96.1754 59.375 95.3125V76.5625C59.375 75.6996 60.0746 75 60.9375 75H81.25V96.875ZM96.875 78.125V93.75H84.375V78.125H96.875Z" fill="url(#paint4_linear_10112_21)"/>
<defs>
<linearGradient id="paint0_linear_10112_21" x1="9.69441" y1="9.375" x2="12.3899" y2="9.57592" gradientUnits="userSpaceOnUse">
<stop stop-color="#C89AFC"/>
<stop offset="1" stop-color="#7C6AFA"/>
</linearGradient>
<linearGradient id="paint1_linear_10112_21" x1="9.69441" y1="15.625" x2="12.3899" y2="15.8259" gradientUnits="userSpaceOnUse">
<stop stop-color="#C89AFC"/>
<stop offset="1" stop-color="#7C6AFA"/>
</linearGradient>
<linearGradient id="paint2_linear_10112_21" x1="87.8194" y1="81.25" x2="90.5149" y2="81.4509" gradientUnits="userSpaceOnUse">
<stop stop-color="#C89AFC"/>
<stop offset="1" stop-color="#7C6AFA"/>
</linearGradient>
<linearGradient id="paint3_linear_10112_21" x1="87.8194" y1="87.5" x2="90.5149" y2="87.7009" gradientUnits="userSpaceOnUse">
<stop stop-color="#C89AFC"/>
<stop offset="1" stop-color="#7C6AFA"/>
</linearGradient>
<linearGradient id="paint4_linear_10112_21" x1="10.221" y1="-1.0863e-05" x2="96.4773" y2="6.42932" gradientUnits="userSpaceOnUse">
<stop stop-color="#C89AFC"/>
<stop offset="1" stop-color="#7C6AFA"/>
</linearGradient>
</defs>
</svg>

<svg width="100" height="100" fill="none" xmlns="http://www.w3.org/2000/svg"><path d="M9.375 9.375H12.5V12.5H9.375V9.375z" fill="url(#paint0_linear_10112_21)"/><path d="M9.375 15.625H12.5v3.125H9.375v-3.125z" fill="url(#paint1_linear_10112_21)"/><path d="M87.5 81.25h3.125v3.125H87.5V81.25z" fill="url(#paint2_linear_10112_21)"/><path d="M87.5 87.5h3.125v3.125H87.5V87.5z" fill="url(#paint3_linear_10112_21)"/><path d="M84.375 71.875H60.937a4.688 4.688 0 00-4.687 4.688v4.687h-9.375v3.125H19.531c-9.06 0-16.406-7.346-16.406-16.406 0-9.06 7.346-16.406 16.406-16.406H80.47c10.785 0 19.53-8.745 19.53-19.533 0-10.785-8.745-19.53-19.531-19.53H53.125V9.375H43.75V4.687A4.688 4.688 0 0039.062 0H15.625v3.125H0V25h15.625v3.125h23.438a4.688 4.688 0 004.687-4.688V18.75h9.375v-3.125h27.344c9.06 0 16.406 7.346 16.406 16.406 0 9.06-7.346 16.407-16.406 16.407H19.53C8.745 48.438 0 57.181 0 67.968 0 78.756 8.745 87.5 19.531 87.5h27.344v3.125h9.375v4.688A4.688 4.688 0 0060.938 100h23.437v-3.125H100V75H84.375v-3.125zm-68.75-50h-12.5V6.25h12.5v15.625zm25-12.5v14.063c0 .862-.7 1.562-1.563 1.562H18.75V3.125h20.313c.862 0 1.562.7 1.562 1.563v4.687zM50 15.625h-6.25V12.5H50v3.125zM56.25 87.5H50v-3.125h6.25V87.5zm25 9.375H60.937c-.862 0-1.562-.7-1.562-1.563v-18.75c0-.862.7-1.562 1.563-1.562H81.25v21.875zm15.625-18.75V93.75h-12.5V78.125h12.5z" fill="url(#paint4_linear_10112_21)"/><defs><linearGradient id="paint0_linear_10112_21" x1="9.694" y1="9.375" x2="12.39" y2="9.576" gradientUnits="userSpaceOnUse"><stop stop-color="#C89AFC"/><stop offset="1" stop-color="#7C6AFA"/></linearGradient><linearGradient id="paint1_linear_10112_21" x1="9.694" y1="15.625" x2="12.39" y2="15.826" gradientUnits="userSpaceOnUse"><stop stop-color="#C89AFC"/><stop offset="1" stop-color="#7C6AFA"/></linearGradient><linearGradient id="paint2_linear_10112_21" x1="87.819" y1="81.25" x2="90.515" y2="81.451" gradientUnits="userSpaceOnUse"><stop stop-color="#C89AFC"/><stop offset="1" stop-color="#7C6AFA"/></linearGradient><linearGradient id="paint3_linear_10112_21" x1="87.819" y1="87.5" x2="90.515" y2="87.701" gradientUnits="userSpaceOnUse"><stop stop-color="#C89AFC"/><stop offset="1" stop-color="#7C6AFA"/></linearGradient><linearGradient id="paint4_linear_10112_21" x1="10.221" y1="0" x2="96.477" y2="6.429" gradientUnits="userSpaceOnUse"><stop stop-color="#C89AFC"/><stop offset="1" stop-color="#7C6AFA"/></linearGradient></defs></svg>
